X: 10512
M: 2/4
L: 1/16
K: Bb
(dc) |\
|: (Bc) |\
defg f2 (fe) | defg f2 (fd) | efga g2 (gf) | efga g2 (ga) |\
babg gfdf | dedB c2 (Bc) | d2dB cBGB | F2B2B2 :|


